images/insta.svg

<svg width="28" height="28" viewBox="0 0 28 28" fill="none" xmlns="http://www.w3.org/2000/svg">
<path fill-rule="evenodd" clip-rule="evenodd" d="M26 14C26 20.6274 20.6274 26 14 26C7.37258 26 2 20.6274 2 14C2 7.37258 7.37258 2 14 2C20.6274 2 26 7.37258 26 14ZM16.4732 8.036C15.8336 8.006 15.6302 8 14 8C12.3698 8 12.1664 8.0078 11.5268 8.036C10.8872 8.066 10.4528 8.1662 10.07 8.315C9.66946 8.46544 9.3066 8.70154 9.0068 9.0068C8.70128 9.30639 8.46514 9.66931 8.315 10.07C8.1662 10.4528 8.066 10.8872 8.036 11.5268C8.006 12.1664 8 12.3698 8 14C8 15.6302 8.0078 15.8336 8.036 16.4732C8.066 17.1122 8.1662 17.5478 8.315 17.93C8.46556 18.3305 8.70164 18.6933 9.0068 18.9932C9.30652 19.2986 9.6694 19.5347 10.07 19.685C10.4528 19.8332 10.8878 19.934 11.5268 19.964C12.1664 19.994 12.3698 20 14 20C15.6302 20 15.8336 19.9922 16.4732 19.964C17.1122 19.934 17.5478 19.8332 17.93 19.685C18.3304 19.5343 18.6932 19.2982 18.9932 18.9932C19.2987 18.6936 19.5348 18.3307 19.685 17.93C19.8332 17.5472 19.934 17.1122 19.964 16.4732C19.994 15.8336 20 15.6302 20 14C20 12.3698 19.9922 12.1664 19.964 11.5268C19.934 10.8878 19.8332 10.4522 19.685 10.07C19.5344 9.66955 19.2983 9.30674 18.9932 9.0068C18.6596 8.6738 18.326 8.4674 17.93 8.315C17.5472 8.1662 17.1122 8.066 16.4732 8.036ZM11.8787 11.8787C12.4413 11.3161 13.2044 11 14 11C14.7956 11 15.5587 11.3161 16.1213 11.8787C16.6839 12.4413 17 13.2044 17 14C17 14.7956 16.6839 15.5587 16.1213 16.1213C15.5587 16.6839 14.7956 17 14 17C13.2044 17 12.4413 16.6839 11.8787 16.1213C11.3161 15.5587 11 14.7956 11 14C11 13.2044 11.3161 12.4413 11.8787 11.8787ZM17.6803 10.3197C17.821 10.4603 17.9 10.6511 17.9 10.85C17.9 11.0489 17.821 11.2397 17.6803 11.3803C17.5397 11.521 17.3489 11.6 17.15 11.6C16.9511 11.6 16.7603 11.521 16.6197 11.3803C16.479 11.2397 16.4 11.0489 16.4 10.85C16.4 10.6511 16.479 10.4603 16.6197 10.3197C16.7603 10.179 16.9511 10.1 17.15 10.1C17.3489 10.1 17.5397 10.179 17.6803 10.3197ZM15.2728 12.7272C14.9352 12.3896 14.4774 12.2 14 12.2C13.5226 12.2 13.0648 12.3896 12.7272 12.7272C12.3896 13.0648 12.2 13.5226 12.2 14C12.2 14.4774 12.3896 14.9352 12.7272 15.2728C13.0648 15.6104 13.5226 15.8 14 15.8C14.4774 15.8 14.9352 15.6104 15.2728 15.2728C15.6104 14.9352 15.8 14.4774 15.8 14C15.8 13.5226 15.6104 13.0648 15.2728 12.7272Z" fill="#FCFCFC"/>
<path d="M14 24C8.47715 24 4 19.5228 4 14H0C0 21.732 6.26801 28 14 28V24ZM24 14C24 19.5228 19.5228 24 14 24V28C21.732 28 28 21.732 28 14H24ZM14 4C19.5228 4 24 8.47715 24 14H28C28 6.26801 21.732 0 14 0V4ZM14 0C6.26801 0 0 6.26801 0 14H4C4 8.47715 8.47715 4 14 4V0Z" fill="#FCFCFC" fill-opacity="0.2"/>
</svg>

<svg width="28" height="28" fill="none" xmlns="http://www.w3.org/2000/svg"><path fill-rule="evenodd" clip-rule="evenodd" d="M26 14a12 12 0 1 1-24 0 12 12 0 0 1 24 0Zm-9.53-5.96C15.83 8 15.63 8 14 8c-1.63 0-1.83 0-2.47.04-.64.03-1.08.13-1.46.28-.4.15-.76.38-1.06.69-.3.3-.54.66-.7 1.06-.14.38-.24.82-.27 1.46C8 12.17 8 12.37 8 14c0 1.63 0 1.83.04 2.47.03.64.13 1.08.28 1.46.15.4.38.76.69 1.06.3.3.66.54 1.06.7.38.14.82.24 1.46.27.64.03.84.04 2.47.04 1.63 0 1.83 0 2.47-.04a4.43 4.43 0 0 0 1.46-.28c.4-.15.76-.38 1.06-.69.3-.3.54-.66.7-1.06.14-.38.24-.82.27-1.46.03-.64.04-.84.04-2.47 0-1.63 0-1.83-.04-2.47a4.43 4.43 0 0 0-.28-1.46c-.15-.4-.38-.76-.69-1.06a2.93 2.93 0 0 0-1.06-.7 4.42 4.42 0 0 0-1.46-.27Zm-4.6 3.84a3 3 0 1 1 4.25 4.24 3 3 0 0 1-4.24-4.24Zm5.81-1.56a.75.75 0 1 1-1.06 1.06.75.75 0 0 1 1.06-1.06Zm-2.4 2.4a1.8 1.8 0 1 0-2.55 2.55 1.8 1.8 0 0 0 2.54-2.54Z" fill="#FCFCFC"/><path d="M14 24A10 10 0 0 1 4 14H0a14 14 0 0 0 14 14v-4Zm10-10a10 10 0 0 1-10 10v4a14 14 0 0 0 14-14h-4ZM14 4a10 10 0 0 1 10 10h4A14 14 0 0 0 14 0v4Zm0-4A14 14 0 0 0 0 14h4A10 10 0 0 1 14 4V0Z" fill="#FCFCFC" fill-opacity=".2"/></svg>
